X:101
T: Ifjúságom csulamadár...
M: 4/4
L: 1/4
K: F
gffg | f/e/d d2 | 
gffg | f/e/c c2 | 
de^fg | c/d/ c B2 | 
d_edc | B/A/G G2 | 

